X:0622
T:Mrs. Spens Monro's Jig.
M:6/8
L:1/8
Q:3/8=120
I: :: ::
Z:Jack Campin * www.campin.me.uk * 2009
K:G
D|G2G AGA|Bcd efg|G2G AGA|BGE E2D|G2G AGA|Bcd efg|{e}dcB AGA|BGG G2:|
f|gfg efg|fdd def|gfg aga|bge e2f|gfg aga|bge efg|   dcB cBA|BGG G2:|

